icon/gr/gremlin.svg

<svg xmlns="http://www.w3.org/2000/svg" viewBox="0 0 24 24" height="1em" width="1em">
  <path fill="none" stroke="#000" stroke-width="2" d="M7,14 C7.55228475,14 8,13.5522847 8,13 C8,12.4477153 7.55228475,12 7,12 C6.44771525,12 6,12.4477153 6,13 C6,13.5522847 6.44771525,14 7,14 Z M17,14 C17.5522847,14 18,13.5522847 18,13 C18,12.4477153 17.5522847,12 17,12 C16.4477153,12 16,12.4477153 16,13 C16,13.5522847 16.4477153,14 17,14 Z M12,16 C12.5,16 13,15.6790227 13,15 C13,14.8871314 11,14.9246156 11,15 C11,15.6790227 11.5,16 12,16 Z M3,24 C3,24 3.00341148,16 3,12 C3.00341148,8 2.55309359,4 12,4 C21.4469064,4 20.9965885,8 21,12 C20.9965885,16 21,24 21,24 M20.0682179,7 C23.3272228,7 23.6478055,3.42041241 22.1136966,1.88630344 C20.5795876,0.352194472 17,0.672777193 17,3.93178206 M7,19 C7,18.7966267 9.50000016,20.1517845 12,20 C14.4999998,20.1517846 17,18.5013715 17,19 C17,19.8021982 15.5,21 12,21 C8.5,21 7,19.5069424 7,19 Z M3.94464295,7 C0.604407067,7 0.38005973,3.42041241 1.90773825,1.88630344 C3.43541678,0.352194472 7,0.672777193 7,3.93178206"/>
</svg>

<svg xmlns="http://www.w3.org/2000/svg" width="24" height="24"><path fill="none" stroke="#000" stroke-width="2" d="M7 14a1 1 0 1 0 0-2 1 1 0 0 0 0 2Zm10 0a1 1 0 1 0 0-2 1 1 0 0 0 0 2Zm-5 2c.5 0 1-.321 1-1 0-.113-2-.075-2 0 0 .679.5 1 1 1Zm-9 8s.003-8 0-12c.003-4-.447-8 9-8s8.997 4 9 8c-.003 4 0 12 0 12m-.932-17c3.26 0 3.58-3.58 2.046-5.114C20.58.352 17 .673 17 3.932M7 19c0-.203 2.5 1.152 5 1 2.5.152 5-1.499 5-1 0 .802-1.5 2-5 2s-5-1.493-5-2ZM3.945 7C.605 7 .38 3.42 1.908 1.886 3.435.352 7 .673 7 3.932"/></svg>
